X:1
T:Alone with God
T:William James Kirkpatrick (1838-1921)
T:Alone with God
T:Public Domain
T:Public Domain
C:William James Kirkpatrick (1838-1921)
Z:Public Domain
%%score ( 1 2 ) ( 3 4 )
L:1/8
M:4/4
K:F
V:1 treble 
V:2 treble 
V:3 bass 
V:4 bass 
V:1
 C2 | [CF]>[CF] [CF]>[CF] [FA]2 [CF]2 | [FA][Fc]- [Fc]4 [Fd]2 | [Fc]>[Fc] [Fc]>[Fc] [FA]2 F2 | %4
w: 1.~When|of life are round me beat-|ing, When * rough|the path that I have trod,|
w: 2.~What|the clouds have ga- thered o’er|me? What * tho’|I’ve passed be- neath the rod?|
w: 3.~’Tis|I find new strength for du-|ty, As * o’er|the sands of time I plod;|
w: 4.~And|I see the mo- ment near-|ing When * I|shall sleep be- neath the sod,|
 [EG]6 C2 | [CF]>[CF] [CF]>[CF] [FA]2 [CF]2 | [FA][Fc]- [Fc]4 [Fd]2 | %7
w: in my|set door re- treat- ing, I|love to * be|
w: per- fect|there lies be- fore me, When|I am * thus|
w: see the|in all His beau- ty, While|rest- ing * there|
w: time with|is dis- ap- pear- ing, I|want to * be|
 [Fc]>[FA] [FG]>F [FA]2 [EG]2 | [CF]4- [CF] ||"^Refrain" [FA][FA]>[GB] | %10
w: a- lone with God. * *|||
w: a- lone with God. A- lone|God, *|the world for-|
w: a- lone with God. * *|||
w: a- lone with God. * *|||
 [Ac]4- [Ac]>[Fc] [Fd]>[Fd] | [Fc]4 [FA]>[FA] [EG]>[FA] | [GB]4- [GB]>[EG] [FA]>[GB] | %13
w: |||
w: bid- * den, A- lone|with God, O blest re-|treat! * A- lone with|
w: |||
w: |||
 [FA]4- [FA]>[FA] [FA]>[GB] | [Ac]4- [Ac]>[FA] [FB]>[Fd] | [Fc]4 [FA]>C F>G | %16
w: |||
w: God, * and in Him|hid- * den, To hold|with Him com- mun- ion|
w: |||
w: |||
 (z3/2 F3/4FF3/4 [FA]>)[FB] [FA](E/C/) | [CF]6 |] %18
w: ||
w: * * * * sweet. * * *||
w: ||
w: ||
V:2
 C2 | x8 | x8 | x6 F2 | x6 C2 | x8 | x8 | x7/2 F/ x4 | x5 || x3 | x8 | x8 | x8 | x8 | x8 | x8 | %16
w: storms|||With-|clo-||||||||||||
w: tho’|||God’s|will|||with|||||||||
w: there|||I|King||||||||||||
w: when|||When|me||||||||||||
 (A4- x3/2 G) x3/2 | x6 |] %18
w: ||
w: ||
w: ||
w: ||
V:3
 [F,A,]2 | [F,A,]>[F,A,] [F,A,]>[F,A,] [F,C]2 [F,A,]2 | [F,C][F,A,]- [F,A,]4 [F,B,]2 | %3
w: ~|~ ~ ~ ~ ~ ~|~ ~ * ~|
 [F,A,]>[F,A,] [F,A,]>[F,A,] [F,C]2 [D,=B,]2 | [C,C]6 [F,A,]2 | %5
w: ~ ~ ~ ~ ~ ~|~ ~|
 [F,A,]>[F,A,] [F,A,]>[F,A,] [F,C]2 [F,A,]2 | [F,C][F,A,]- [F,A,]4 [B,,B,]2 | %7
w: ~ ~ ~ ~ ~ ~|~ ~ * ~|
 [C,A,]>[C,C] [D,=B,]>[D,B,] [C,C]2 [C,_B,]2 | [F,A,]4- [F,A,] || z z2 | %10
w: ~ ~ ~ ~ ~ ~|~ *||
 z3/2 [F,C]/ [F,C]>[F,C] [F,C]>[F,A,] [F,B,]>[F,B,] | [F,A,]4 [F,C]3/2 z/ z2 | %12
w: A- lone with God, ~ ~ ~|~ ~|
 z3/2 [C,E]/ [C,E]>[C,D] [C,C]>[C,C] [C,C]>[C,C] | [F,C]4- [F,C]3/2 z/ z2 | %14
w: A- lone with God, ~ ~ ~|~ *|
 z3/2 [F,C]/ [F,C]>[F,C] [F,F]>[F,_E] [F,D]>[F,B,] | [F,A,]4 [F,C]>A, A,>B, | %16
w: A- lone with God, ~ ~ ~|~ ~ ~ ~ ~|
 z3/2 F,/ F,>F, [F,C]>[B,,D] [C,C][C,B,] | [F,A,]6 |] %18
w: ~ To hold with Him * *||
V:4
 x2 | x8 | x8 | x8 | x8 | x8 | x8 | x8 | x5 || x3 | x8 | x8 | x8 | x8 | x8 | x8 | C4 x4 | x6 |] %18

